src/assets/hyphen-logo.svg

<svg width="217" height="40" viewBox="0 0 217 40" fill="none" xmlns="http://www.w3.org/2000/svg">
<path d="M78.1051 10.6667V14.6667C78.1051 15.4133 77.5184 16 76.7717 16H72.7717H67.4384H63.4384C62.6917 16 62.1051 15.4133 62.1051 14.6667V10.6667V6.66668C62.1051 5.92001 61.5184 5.33334 60.7717 5.33334H58.1051C57.3584 5.33334 56.7717 5.92001 56.7717 6.66668V10.6667V16V21.3333V26.6667V30.6667C56.7717 31.4133 57.3584 32 58.1051 32H60.7717C61.5184 32 62.1051 31.4133 62.1051 30.6667V26.6667V22.6667C62.1051 21.92 62.6917 21.3333 63.4384 21.3333H67.4384H72.7717H76.7717C77.5184 21.3333 78.1051 21.92 78.1051 22.6667V26.6667V30.6667C78.1051 31.4133 78.6917 32 79.4384 32H82.1051C82.8517 32 83.4384 31.4133 83.4384 30.6667V26.6667V21.3333V16V10.6667V6.66668C83.4384 5.92001 82.8517 5.33334 82.1051 5.33334H79.4384C78.6917 5.33334 78.1051 5.92001 78.1051 6.66668V10.6667Z" fill="#808080"/>
<path d="M152.772 10.6667H148.772C148.025 10.6667 147.439 10.08 147.439 9.33333V5.33333V1.33333C147.439 0.586667 146.852 0 146.105 0H143.439C142.692 0 142.105 0.586667 142.105 1.33333V5.33333V10.6667V16V21.3333V26.6667V30.6667C142.105 31.4133 142.692 32 143.439 32H146.105C146.852 32 147.439 31.4133 147.439 30.6667V26.6667V21.3333V17.3333C147.439 16.5867 148.025 16 148.772 16H152.772H156.772C157.519 16 158.105 16.5867 158.105 17.3333V21.3333V26.6667V30.6667C158.105 31.4133 158.692 32 159.439 32H162.105C162.852 32 163.439 31.4133 163.439 30.6667V26.6667V21.3333V16V12C163.439 11.2533 162.852 10.6667 162.105 10.6667H158.105H152.772Z" fill="#808080"/>
<path d="M179.439 10.6667H174.105H170.105C169.359 10.6667 168.772 11.2534 168.772 12V16V18.6667V21.3334V24V26.6667V29.3334V30.6667C168.772 31.4134 169.359 32 170.105 32H174.105H179.439H184.772H188.772C189.519 32 190.105 31.4134 190.105 30.6667V28C190.105 27.2534 189.519 26.6667 188.772 26.6667H184.772H179.439H175.439C174.692 26.6667 174.105 26.08 174.105 25.3334C174.105 24.5867 174.692 24 175.439 24H179.439H184.772H188.772C189.519 24 190.105 23.4134 190.105 22.6667V21.3334V18.6667V16V12C190.105 11.2534 189.519 10.6667 188.772 10.6667H184.772H179.439ZM184.772 17.3334C184.772 18.08 184.185 18.6667 183.439 18.6667H179.439H175.439C174.692 18.6667 174.105 18.08 174.105 17.3334C174.105 16.5867 174.692 16 175.439 16H179.439H183.439C184.185 16 184.772 16.5867 184.772 17.3334Z" fill="#808080"/>
<path d="M211.438 10.6667H206.105H200.772H196.772C196.025 10.6667 195.438 11.2534 195.438 12V16V21.3334V26.6667V30.6667C195.438 31.4134 196.025 32 196.772 32H199.438C200.185 32 200.772 31.4134 200.772 30.6667V26.6667V21.3334V17.3334C200.772 16.5867 201.358 16 202.105 16H206.105H210.105C210.852 16 211.438 16.5867 211.438 17.3334V21.3334V26.6667V30.6667C211.438 31.4134 212.025 32 212.772 32H215.438C216.185 32 216.772 31.4134 216.772 30.6667V26.6667V21.3334V16V12C216.772 11.2534 216.185 10.6667 215.438 10.6667H211.438Z" fill="#808080"/>
<path d="M104.771 16V21.3334V25.3334C104.771 26.08 104.185 26.6667 103.438 26.6667H99.4382H95.4382C94.6915 26.6667 94.1048 26.08 94.1048 25.3334V21.3334V16V12C94.1048 11.2534 93.5182 10.6667 92.7715 10.6667H90.1048C89.3582 10.6667 88.7715 11.2534 88.7715 12V16V21.3334V26.6667V30.6667C88.7715 31.4134 89.3582 32 90.1048 32H94.1048H99.4382H103.438C104.185 32 104.771 32.5867 104.771 33.3334C104.771 34.08 104.185 34.6667 103.438 34.6667H99.4382H95.4382C94.6915 34.6667 94.1048 35.2534 94.1048 36V38.6667C94.1048 39.4134 94.6915 40 95.4382 40H99.4382H104.771H108.771C109.518 40 110.105 39.4134 110.105 38.6667V37.3334V34.6667V32V26.6667V21.3334V16V12C110.105 11.2534 109.518 10.6667 108.771 10.6667H106.105C105.358 10.6667 104.771 11.2534 104.771 12V16Z" fill="#808080"/>
<path d="M126.105 10.6667H120.772H116.772C116.025 10.6667 115.439 11.2534 115.439 12V16V21.3334V26.6667V32V34.6667V37.3334V38.6667C115.439 39.4134 116.025 40 116.772 40H119.439C120.185 40 120.772 39.4134 120.772 38.6667V37.3334V34.6667V33.3334C120.772 32.5867 121.359 32 122.105 32H126.105H131.439H135.439C136.185 32 136.772 31.4134 136.772 30.6667V26.6667V21.3334V16V12C136.772 11.2534 136.185 10.6667 135.439 10.6667H131.439H126.105ZM131.439 21.3334V25.3334C131.439 26.08 130.852 26.6667 130.105 26.6667H126.105H122.105C121.359 26.6667 120.772 26.08 120.772 25.3334V21.3334V17.3334C120.772 16.5867 121.359 16 122.105 16H126.105H130.105C130.852 16 131.439 16.5867 131.439 17.3334V21.3334Z" fill="#808080"/>
<path d="M14.1051 22.6666V25.3333C14.1051 26.08 13.5184 26.6666 12.7717 26.6666H10.1051C9.35839 26.6666 8.77172 26.08 8.77172 25.3333V21.3333V16V12C8.77172 11.2533 9.35839 10.6666 10.1051 10.6666H10.8784C12.0784 10.6666 12.6651 9.22665 11.8117 8.39998L7.06505 3.59998C6.53172 3.06665 5.70505 3.06665 5.17172 3.59998L0.398386 8.39998C-0.454948 9.22665 0.158386 10.6666 1.33172 10.6666H2.10505C2.85172 10.6666 3.43839 11.2533 3.43839 12V16V21.3333V26.6666V30.6666C3.43839 31.4133 4.02505 32 4.77172 32H8.77172H14.1051H18.1051C18.8517 32 19.4384 31.4133 19.4384 30.6666V26.6666V22.6666C19.4384 21.92 18.8517 21.3333 18.1051 21.3333H15.4384C14.7184 21.3333 14.1051 21.92 14.1051 22.6666Z" fill="#615CCD"/>
<path d="M31.4381 26.6667C30.6914 26.6667 30.1047 26.08 30.1047 25.3334V21.3334V16V10.6667V6.66671C30.1047 5.92004 29.5181 5.33337 28.7714 5.33337H24.7714H19.4381H15.4381C14.6914 5.33337 14.1047 5.92004 14.1047 6.66671V10.6667V14.6667C14.1047 15.4134 14.6914 16 15.4381 16H18.1047C18.8514 16 19.4381 15.4134 19.4381 14.6667V12C19.4381 11.2534 20.0247 10.6667 20.7714 10.6667H23.4381C24.1847 10.6667 24.7714 11.2534 24.7714 12V16V21.3334V25.3334C24.7714 26.08 24.1847 26.6667 23.4381 26.6667H22.6647C21.4647 26.6667 20.8781 28.1067 21.7314 28.9334L26.5047 33.7067C27.0381 34.24 27.8647 34.24 28.3981 33.7067L33.1714 28.9334C33.9981 28.1067 33.4114 26.6667 32.2381 26.6667H31.4381Z" fill="#615CCD"/>
</svg>

<svg width="217" height="40" fill="none" xmlns="http://www.w3.org/2000/svg"><path d="M78.105 10.667v4A1.32 1.32 0 0 1 76.772 16H63.439a1.32 1.32 0 0 1-1.334-1.333v-8a1.32 1.32 0 0 0-1.333-1.334h-2.667a1.32 1.32 0 0 0-1.333 1.334v24A1.32 1.32 0 0 0 58.105 32h2.667a1.32 1.32 0 0 0 1.333-1.333v-8a1.32 1.32 0 0 1 1.334-1.334h13.333a1.32 1.32 0 0 1 1.333 1.334v8A1.32 1.32 0 0 0 79.44 32h2.666a1.32 1.32 0 0 0 1.334-1.333v-24a1.32 1.32 0 0 0-1.334-1.334H79.44a1.32 1.32 0 0 0-1.334 1.334v4ZM152.772 10.667h-4a1.32 1.32 0 0 1-1.333-1.334v-8A1.32 1.32 0 0 0 146.105 0h-2.666a1.32 1.32 0 0 0-1.334 1.333v29.334A1.32 1.32 0 0 0 143.439 32h2.666a1.32 1.32 0 0 0 1.334-1.333V17.333A1.32 1.32 0 0 1 148.772 16h8a1.32 1.32 0 0 1 1.333 1.333v13.334A1.32 1.32 0 0 0 159.439 32h2.666a1.32 1.32 0 0 0 1.334-1.333V12a1.32 1.32 0 0 0-1.334-1.333h-9.333ZM179.439 10.667h-9.334A1.32 1.32 0 0 0 168.772 12V30.667A1.32 1.32 0 0 0 170.105 32h18.667a1.32 1.32 0 0 0 1.333-1.333V28a1.32 1.32 0 0 0-1.333-1.333h-13.333a1.32 1.32 0 0 1-1.334-1.334A1.32 1.32 0 0 1 175.439 24h13.333a1.32 1.32 0 0 0 1.333-1.333V12a1.32 1.32 0 0 0-1.333-1.333h-9.333Zm5.333 6.666a1.32 1.32 0 0 1-1.333 1.334h-8a1.32 1.32 0 0 1-1.334-1.334A1.32 1.32 0 0 1 175.439 16h8a1.32 1.32 0 0 1 1.333 1.333ZM211.438 10.667h-14.666A1.32 1.32 0 0 0 195.438 12v18.667A1.32 1.32 0 0 0 196.772 32h2.666a1.32 1.32 0 0 0 1.334-1.333V17.333A1.32 1.32 0 0 1 202.105 16h8a1.32 1.32 0 0 1 1.333 1.333v13.334A1.32 1.32 0 0 0 212.772 32h2.666a1.32 1.32 0 0 0 1.334-1.333V12a1.32 1.32 0 0 0-1.334-1.333h-4ZM104.771 16v9.333a1.32 1.32 0 0 1-1.333 1.334h-8a1.32 1.32 0 0 1-1.333-1.334V12a1.32 1.32 0 0 0-1.334-1.333h-2.666A1.32 1.32 0 0 0 88.77 12v18.667A1.32 1.32 0 0 0 90.106 32h13.333a1.32 1.32 0 0 1 1.333 1.333 1.32 1.32 0 0 1-1.333 1.334h-8A1.32 1.32 0 0 0 94.105 36v2.667A1.32 1.32 0 0 0 95.438 40h13.333a1.32 1.32 0 0 0 1.334-1.333V12a1.32 1.32 0 0 0-1.334-1.333h-2.666A1.32 1.32 0 0 0 104.771 12v4ZM126.106 10.667h-9.334A1.32 1.32 0 0 0 115.439 12v26.667A1.32 1.32 0 0 0 116.772 40h2.667a1.32 1.32 0 0 0 1.333-1.333v-5.334A1.32 1.32 0 0 1 122.106 32h13.333a1.32 1.32 0 0 0 1.333-1.333V12a1.32 1.32 0 0 0-1.333-1.333h-9.333Zm5.333 10.666v4a1.32 1.32 0 0 1-1.333 1.334h-8a1.32 1.32 0 0 1-1.334-1.334v-8A1.32 1.32 0 0 1 122.106 16h8a1.32 1.32 0 0 1 1.333 1.333v4Z" fill="#000"/><path d="M14.105 22.667v2.666a1.32 1.32 0 0 1-1.333 1.334h-2.667a1.32 1.32 0 0 1-1.333-1.334V12a1.32 1.32 0 0 1 1.333-1.333h.773c1.2 0 1.787-1.44.934-2.267L7.065 3.6a1.32 1.32 0 0 0-1.893 0L.398 8.4c-.853.827-.24 2.267.934 2.267h.773A1.32 1.32 0 0 1 3.438 12v18.667A1.32 1.32 0 0 0 4.772 32h13.333a1.32 1.32 0 0 0 1.333-1.333v-8a1.32 1.32 0 0 0-1.333-1.334h-2.667c-.72 0-1.333.587-1.333 1.334Z" fill="#615CCD"/><path d="M31.438 26.667a1.32 1.32 0 0 1-1.333-1.334V6.667a1.32 1.32 0 0 0-1.333-1.334H15.438a1.32 1.32 0 0 0-1.333 1.334v8A1.32 1.32 0 0 0 15.438 16h2.667a1.32 1.32 0 0 0 1.333-1.333V12a1.32 1.32 0 0 1 1.334-1.333h2.666A1.32 1.32 0 0 1 24.772 12v13.333a1.32 1.32 0 0 1-1.334 1.334h-.773c-1.2 0-1.787 1.44-.933 2.266l4.773 4.774a1.32 1.32 0 0 0 1.893 0l4.774-4.774c.826-.826.24-2.266-.934-2.266h-.8Z" fill="#615CCD"/></svg>
